src/work/blix/blixmap/static/images/check.svg

<?xml version="1.0" encoding="UTF-8" standalone="no"?>
<svg width="23px" height="21px" viewBox="0 0 23 21" version="1.1" xmlns="http://www.w3.org/2000/svg" xmlns:xlink="http://www.w3.org/1999/xlink" xmlns:sketch="http://www.bohemiancoding.com/sketch/ns">
    <!-- Generator: Sketch 3.1.1 (8761) - http://www.bohemiancoding.com/sketch -->
    <title>Oval 219</title>
    <desc>Created with Sketch.</desc>
    <defs></defs>
    <g id="List-View" stroke="none" stroke-width="1" fill="none" fill-rule="evenodd" sketch:type="MSPage">
        <path d="M21.0490116,0.501357059 C22.0183971,1.02977744 22.3308313,2.22944951 21.7536665,3.16979868 L11.778444,19.4219895 C11.1982287,20.3673087 9.96614916,20.6733415 9.02056982,20.1019388 L1.35300747,15.4685194 C0.410090924,14.8987258 0.109742196,13.6807831 0.692155413,12.7318829 L0.644230245,12.8099653 C1.22216828,11.8683563 2.44899046,11.5834686 3.37475128,12.1675541 L9.4519112,16.0017856 L18.442361,1.35404166 C19.0198494,0.413165187 20.2738996,0.0788367808 21.2432239,0.607223851 L21.0490116,0.501357059 Z" id="Oval-219" fill="#FFFFFF" sketch:type="MSShapeGroup"></path>
    </g>
</svg>

<svg height="21" viewBox="0 0 23 21" width="23" xmlns="http://www.w3.org/2000/svg"><path d="m21.0490116.50135706c.9693855.52842038 1.2818197 1.72809245.7046549 2.66844162l-9.9752225 16.25219082c-.5802153.9453192-1.81229484 1.251352-2.75787418.6799493l-7.66756235-4.6334194c-.94291655-.5697936-1.24326527-1.7877363-.66085206-2.7366365l-.04792516.0780824c.57793803-.941609 1.80476021-1.2264967 2.73052103-.6424112l6.07715992 3.8342315 8.9904498-14.64774394c.5774884-.94087647 1.8315386-1.27520488 2.8008629-.74681781z" fill="#fff" fill-rule="evenodd"/></svg>
